;FLAVOR:Marlin
;TIME:698
;Filament used: 0.257319m
;Layer height: 0.15
;Generated with Cura_SteamEngine 3.3.0
M190 S60
M104 S210
M109 S210
M82 ;absolute extrusion mode
G21 ;metric values
G90 ;absolute positioning
M82 ;set extruder to absolute mode
M107 ;start with the fan off
G28 X0 Y0 ;move X/Y to min endstops
G28 Z0 ;move Z to min endstops
G1 Z15.0 F9000 ;move the platform down 15mm
G92 E0 ;zero the extruded length
G1 F200 E3 ;extrude 3mm of feed stock
G92 E0 ;zero the extruded length again
G1 F9000
;Put printing message on LCD screen
M117 Printing...
G92 E0
G1 F1500 E-6.5
;LAYER_COUNT:101
;LAYER:0
M107
G0 F3600 X101.899 Y108.658 Z0.3
;TYPE:SKIRT
G1 F1500 E0
G1 F1800 X102.346 Y108.268 E0.0296
G1 X102.841 Y107.941 E0.05919
G1 X103.375 Y107.683 E0.08878
G1 X103.939 Y107.5 E0.11836
G1 X104.522 Y107.394 E0.14793
G1 X105.013 Y107.367 E0.17246
G1 X111.971 Y107.367 E0.5196
G1 X112.563 Y107.407 E0.5492
G1 X113.143 Y107.526 E0.57874
G1 X113.703 Y107.722 E0.60834
G1 X114.231 Y107.992 E0.63792
G1 X114.718 Y108.33 E0.6675
G1 X115.111 Y108.685 E0.69392
G1 X116.486 Y110.086 E0.79186
G1 X116.872 Y110.536 E0.82143
G1 X117.194 Y111.034 E0.85102
G1 X117.446 Y111.571 E0.88061
G1 X117.623 Y112.137 E0.9102
G1 X117.723 Y112.721 E0.93976
G1 X117.745 Y113.071 E0.95726
G1 X117.927 Y121.319 E1.36885
G1 X117.928 Y121.428 E1.37429
G1 X117.918 Y125.149 E1.55993
G1 X117.876 Y125.74 E1.58949
G1 X117.756 Y126.321 E1.61909
G1 X117.558 Y126.88 E1.64868
G1 X117.287 Y127.407 E1.67824
G1 X116.948 Y127.893 E1.7078
G1 X116.652 Y128.225 E1.72999
G1 X116.316 Y128.566 E1.75388
G1 X115.872 Y128.96 E1.78349
G1 X115.38 Y129.29 E1.81305
G1 X114.847 Y129.551 E1.84266
G1 X114.285 Y129.738 E1.87221
G1 X113.702 Y129.847 E1.9018
G1 X113.175 Y129.878 E1.92813
G1 X102.793 Y129.861 E2.4461
G1 X102.201 Y129.82 E2.4757
G1 X101.621 Y129.7 E2.50525
G1 X101.061 Y129.503 E2.53487
G1 X100.534 Y129.232 E2.56443
G1 X100.047 Y128.893 E2.59404
G1 X99.684 Y128.567 E2.61838
G1 X99.366 Y128.248 E2.64085
G1 X98.976 Y127.801 E2.67044
G1 X98.651 Y127.306 E2.69999
G1 X98.395 Y126.771 E2.72958
G1 X98.213 Y126.207 E2.75914
G1 X98.108 Y125.623 E2.78875
G1 X98.082 Y125.141 E2.81283
G1 X98.083 Y120.854 E3.02671
G1 X98.147 Y120.108 E3.06406
G1 X98.659 Y117.134 E3.21462
G1 X99.272 Y112.564 E3.44466
G1 X99.39 Y111.983 E3.47424
G1 X99.586 Y111.423 E3.50384
G1 X99.854 Y110.895 E3.53338
G1 X100.192 Y110.407 E3.56299
G1 X100.519 Y110.04 E3.58752
G1 X101.899 Y108.658 E3.68496
G0 F3600 X102.183 Y108.941
G1 F1800 X102.609 Y108.57 E3.71314
G1 X103.084 Y108.263 E3.74136
G1 X103.597 Y108.026 E3.76955
G1 X104.139 Y107.864 E3.79777
G1 X104.698 Y107.779 E3.82598
G1 X105.013 Y107.767 E3.84171
G1 X111.971 Y107.767 E4.18884
G1 X112.535 Y107.807 E4.21705
G1 X113.088 Y107.926 E4.24527
G1 X113.618 Y108.122 E4.27346
G1 X114.115 Y108.39 E4.30163
G1 X114.57 Y108.726 E4.32985
G1 X114.826 Y108.965 E4.34733
G1 X116.201 Y110.366 E4.44526
G1 X116.567 Y110.797 E4.47347
G1 X116.869 Y111.274 E4.50164
G1 X117.101 Y111.79 E4.52986
G1 X117.258 Y112.333 E4.55806
G1 X117.345 Y113.08 E4.59558
G1 X117.527 Y121.328 E5.00718
G1 X117.528 Y121.427 E5.01212
G1 X117.518 Y125.148 E5.19776
G1 X117.477 Y125.712 E5.22597
G1 X117.356 Y126.264 E5.25416
G1 X117.159 Y126.794 E5.28237
G1 X116.889 Y127.29 E5.31055
G1 X116.367 Y127.944 E5.3523
G1 X116.031 Y128.285 E5.37618
G1 X115.607 Y128.659 E5.40439
G1 X115.134 Y128.969 E5.4326
G1 X114.623 Y129.21 E5.46079
G1 X114.082 Y129.375 E5.48901
G1 X113.524 Y129.463 E5.51719
G1 X113.175 Y129.478 E5.53462
G1 X102.793 Y129.461 E6.05258
G1 X102.23 Y129.42 E6.08074
G1 X101.677 Y129.3 E6.10897
G1 X101.147 Y129.104 E6.13716
G1 X100.65 Y128.834 E6.16538
G1 X100.196 Y128.497 E6.19359
G1 X99.967 Y128.285 E6.20916
G1 X99.649 Y127.966 E6.23163
G1 X99.279 Y127.538 E6.25986
G1 X98.973 Y127.063 E6.28805
G1 X98.738 Y126.549 E6.31624
G1 X98.577 Y126.007 E6.34445
G1 X98.494 Y125.448 E6.37264
G1 X98.482 Y125.141 E6.38797
G1 X98.483 Y120.854 E6.60185
G1 X98.541 Y120.176 E6.6358
G1 X99.053 Y117.202 E6.78636
G1 X99.668 Y112.617 E7.01715
G1 X99.783 Y112.064 E7.04533
G1 X99.974 Y111.532 E7.07353
G1 X100.239 Y111.032 E7.10176
G1 X100.571 Y110.575 E7.12995
G1 X100.803 Y110.323 E7.14703
G1 X102.183 Y108.941 E7.24447
G0 F3600 X102.466 Y109.223
G1 F1800 X102.872 Y108.873 E7.27121
G1 X103.325 Y108.587 E7.29794
G1 X103.817 Y108.372 E7.32473
G1 X104.334 Y108.232 E7.35145
G1 X105.013 Y108.167 E7.38548
G1 X111.971 Y108.167 E7.73262
G1 X112.506 Y108.207 E7.75938
G1 X113.029 Y108.326 E7.78614
G1 X113.528 Y108.521 E7.81287
G1 X113.993 Y108.789 E7.83965
G1 X114.54 Y109.245 E7.87518
G1 X115.915 Y110.646 E7.97311
G1 X116.261 Y111.056 E7.99988
G1 X116.543 Y111.513 E8.02667
G1 X116.753 Y112.006 E8.0534
G1 X116.888 Y112.525 E8.08016
G1 X116.945 Y113.089 E8.10844
G1 X117.127 Y121.337 E8.52003
G1 X117.128 Y121.426 E8.52447
G1 X117.118 Y125.147 E8.71012
G1 X117.077 Y125.681 E8.73684
G1 X116.956 Y126.204 E8.76362
G1 X116.76 Y126.703 E8.79036
G1 X116.491 Y127.167 E8.81712
G1 X116.082 Y127.664 E8.84923
G1 X115.746 Y128.005 E8.87312
G1 X115.343 Y128.358 E8.89985
G1 X114.891 Y128.647 E8.92661
G1 X114.401 Y128.865 E8.95337
G1 X113.884 Y129.009 E8.98014
G1 X113.176 Y129.078 E9.01563
G1 X102.794 Y129.061 E9.53359
G1 X102.259 Y129.02 E9.56036
G1 X101.737 Y128.9 E9.58709
G1 X101.238 Y128.704 E9.61383
G1 X100.773 Y128.436 E9.64061
G1 X100.25 Y128.003 E9.67448
G1 X99.932 Y127.684 E9.69695
G1 X99.583 Y127.277 E9.7237
G1 X99.298 Y126.822 E9.75049
G1 X99.084 Y126.331 E9.77721
G1 X98.945 Y125.813 E9.80397
G1 X98.882 Y125.141 E9.83764
G1 X98.883 Y120.854 E10.05152
G1 X98.935 Y120.244 E10.08206
G1 X99.452 Y117.241 E10.23409
G1 X100.065 Y112.671 E10.46413
G1 X100.176 Y112.146 E10.4909
G1 X100.363 Y111.643 E10.51767
G1 X100.623 Y111.174 E10.54443
G1 X101.086 Y110.605 E10.58102
G1 X102.466 Y109.223 E10.67846
G0 F3600 X102.749 Y109.506
G1 F1800 X103.133 Y109.177 E10.70369
G1 X103.564 Y108.914 E10.72888
G1 X104.032 Y108.721 E10.75413
G1 X104.524 Y108.605 E10.77935
G1 X105.013 Y108.567 E10.80382
G1 X111.971 Y108.567 E11.15096
G1 X112.475 Y108.607 E11.17618
G1 X112.966 Y108.726 E11.20139
G1 X113.433 Y108.92 E11.22662
G1 X113.863 Y109.186 E11.25184
G1 X114.255 Y109.526 E11.27773
G1 X115.63 Y110.927 E11.37567
G1 X115.954 Y111.314 E11.40085
G1 X116.214 Y111.748 E11.42609
G1 X116.402 Y112.218 E11.45134
G1 X116.513 Y112.711 E11.47655
G1 X116.545 Y113.097 E11.49588
G1 X116.727 Y121.345 E11.90747
G1 X116.728 Y121.425 E11.91146
G1 X116.718 Y125.146 E12.09711
G1 X116.677 Y125.649 E12.12228
G1 X116.557 Y126.141 E12.14755
G1 X116.361 Y126.607 E12.17277
G1 X116.094 Y127.036 E12.19798
G1 X115.797 Y127.383 E12.22077
G1 X115.461 Y127.724 E12.24465
G1 X115.079 Y128.055 E12.26987
G1 X114.65 Y128.322 E12.29508
G1 X114.184 Y128.517 E12.32028
G1 X113.692 Y128.637 E12.34555
G1 X113.177 Y128.678 E12.37132
G1 X102.795 Y128.661 E12.88928
G1 X102.291 Y128.62 E12.91451
G1 X101.8 Y128.501 E12.93972
G1 X101.333 Y128.305 E12.96498
G1 X100.904 Y128.039 E12.99017
G1 X100.534 Y127.72 E13.01454
G1 X100.216 Y127.401 E13.03701
G1 X99.888 Y127.016 E13.06224
G1 X99.625 Y126.584 E13.08748
G1 X99.434 Y126.116 E13.11269
G1 X99.319 Y125.624 E13.1379
G1 X99.282 Y125.141 E13.16207
G1 X99.283 Y120.854 E13.37595
G1 X99.329 Y120.312 E13.40309
G1 X99.846 Y117.309 E13.55511
G1 X100.461 Y112.724 E13.78591
G1 X100.568 Y112.229 E13.81117
G1 X100.751 Y111.758 E13.83638
G1 X101.006 Y111.322 E13.86158
G1 X101.369 Y110.888 E13.88981
G1 X102.749 Y109.506 E13.98725
G1 F1500 E7.48725
G0 F3600 X104.358 Y111.469
G0 X105.265 Y112.375
G0 X109.93 Y117.159
G0 X110 Y117.229
;TYPE:WALL-INNER
G1 F1500 E13.98725
G1 F1800 X110 Y117.726 E14.01204
G1 X106.99 Y117.726 E14.16221
G1 X106.99 Y117.229 E14.18701
G1 X105.258 Y117.229 E14.27342
G1 X104.223 Y116.194 E14.34644
G1 X104.223 Y113.392 E14.48623
G1 X105.258 Y112.357 E14.55926
G1 X111.732 Y112.357 E14.88225
G1 X112.767 Y113.392 E14.95527
G1 X112.767 Y116.194 E15.09506
G1 X111.732 Y117.229 E15.16809
G1 X110 Y117.229 E15.2545
G0 F3600 X110.4 Y117.629
;TYPE:WALL-OUTER
G1 F1800 X110.4 Y118.126 E15.27929
G1 X106.59 Y118.126 E15.46938
G1 X106.59 Y117.629 E15.49417
G1 X105.092 Y117.629 E15.56891
G1 X103.823 Y116.36 E15.65844
G1 X103.823 Y113.226 E15.8148
G1 X105.092 Y111.957 E15.90433
G1 X111.898 Y111.957 E16.24389
G1 X113.167 Y113.226 E16.33342
G1 X113.167 Y116.36 E16.48978
G1 X111.898 Y117.629 E16.57931
G1 X110.4 Y117.629 E16.65405
G0 F3600 X110.4 Y117.829
G0 X109.93 Y117.656
G0 X109.61 Y117.336
;TYPE:SKIN
G1 F1800 X107.38 Y117.336 E16.7653
G1 X107.38 Y116.839 E16.7901
G1 X105.418 Y116.839 E16.88798
G1 X104.613 Y116.034 E16.94478
G1 X104.613 Y113.552 E17.06861
G1 X105.418 Y112.747 E17.1254
G1 X111.572 Y112.747 E17.43243
G1 X112.377 Y113.552 E17.48922
G1 X112.377 Y116.034 E17.61305
G1 X111.572 Y116.839 E17.66985
G1 X109.61 Y116.839 E17.76773
G1 X109.61 Y117.336 E17.79253
G0 F3600 X105.909 Y116.657
G1 F1800 X104.792 Y115.54 E17.87134
G1 X104.722 Y115.47
G0 F3600 X104.792 Y114.974
G1 F1800 X106.475 Y116.657 E17.99008
G1 X106.545 Y116.727
G0 F3600 X107.041 Y116.657
G1 F1800 X104.792 Y114.409 E18.14873
G1 X104.722 Y114.339
G0 F3600 X104.792 Y113.843
G1 F1800 X108.104 Y117.155 E18.38241
G1 X108.174 Y117.225
G0 F3600 X108.67 Y117.155
G1 F1800 X104.966 Y113.451 E18.64375
G1 X104.896 Y113.381
G0 F3600 X105.249 Y113.168
G1 F1800 X109.235 Y117.155 E18.92501
G1 X109.305 Y117.225
G0 F3600 X109.43 Y116.784
G1 F1800 X105.572 Y112.926 E19.19722
G1 X105.502 Y112.856
G0 F3600 X106.138 Y112.926
G1 F1800 X109.87 Y116.658 E19.46053
G1 X109.94 Y116.728
G0 F3600 X110.435 Y116.658
G1 F1800 X106.703 Y112.926 E19.72384
G1 X106.633 Y112.856
G0 F3600 X107.269 Y112.926
G1 F1800 X111.001 Y116.658 E19.98716
G1 X111.071 Y116.728
G0 F3600 X111.532 Y116.623
G1 F1800 X107.835 Y112.926 E20.248
G1 X107.765 Y112.856
G0 F3600 X108.4 Y112.926
G1 F1800 X111.815 Y116.34 E20.48891
G1 X111.885 Y116.41
G0 F3600 X112.098 Y116.058
G1 F1800 X108.966 Y112.926 E20.70989
G1 X108.896 Y112.856
G0 F3600 X109.532 Y112.926
G1 F1800 X112.197 Y115.591 E20.89792
G1 X112.267 Y115.661
G0 F3600 X112.197 Y115.025
G1 F1800 X110.097 Y112.926 E21.04605
G1 X110.027 Y112.856
G0 F3600 X110.663 Y112.926
G1 F1800 X112.197 Y114.46 E21.15428
G1 X112.267 Y114.53
G0 F3600 X112.197 Y113.894
G1 F1800 X111.229 Y112.926 E21.22258
G1 X111.159 Y112.856
G1 F1500 E14.72258
G0 F3600 X107.004 Y117.712
G0 X105.737 Y118.482
G0 X105.652 Y118.836
G0 X105.642 Y118.88
G0 X105.115 Y121.124
G0 X105.106 Y121.168
G0 X105.068 Y121.329
G0 X103.771 Y121.392
G0 X103.72 Y123.185
G0 X103.79 Y123.115
;TYPE:WALL-INNER
G1 F1500 E21.22258
G1 F1800 X112.21 Y123.115 E21.64266
G1 X112.21 Y121.393 E21.72857
G1 X112.171 Y121.047 E21.74594
G1 X112.094 Y120.83 E21.75743
G1 X112.049 Y120.702 E21.76419
G1 X111.852 Y120.387 E21.78273
G1 X111.713 Y120.248 E21.79254
G1 X111.598 Y120.133 E21.80065
G1 X111.492 Y120.067 E21.80688
G1 X111.598 Y120.067
G1 X111.852 Y120.067
G1 X111.893 Y120.067
G1 X112.032 Y120.206 E21.81039
G1 X112.288 Y120.462 E21.82421
G1 X112.384 Y120.558 E21.83047
G1 X112.928 Y121.102 E21.86886
G1 X112.928 Y124.888 E22.05774
G1 X103.272 Y124.889 E22.53948
G1 X103.072 Y124.889 E22.54946
G1 X103.072 Y124.689 E22.55592
G1 X103.072 Y121.102 E22.73488
G1 X103.615 Y120.559 E22.77319
G1 X103.711 Y120.463 E22.77996
G1 X103.968 Y120.206 E22.79809
G1 X104.107 Y120.067 E22.8079
G1 X104.148 Y120.067 E22.80995
G1 X104.402 Y120.067 E22.82262
G1 X104.508 Y120.067 E22.82791
G1 X104.402 Y120.133
G1 X104.288 Y120.247
G1 X104.148 Y120.387
G1 X103.951 Y120.702 E22.84172
G1 X103.906 Y120.83 E22.84798
G1 X103.829 Y121.047 E22.85947
G1 X103.79 Y121.393 E22.87684
G1 X103.79 Y123.115 E22.96275
G0 F3600 X104.19 Y122.715
;TYPE:WALL-OUTER
G1 F1800 X111.81 Y122.715 E23.34291
G1 X111.81 Y121.415 E23.40777
G1 X111.779 Y121.137 E23.42173
G1 X111.687 Y120.877 E23.43549
G1 X111.537 Y120.638 E23.44956
G1 X111.347 Y120.448 E23.46297
G1 X111.108 Y120.298 E23.47705
G1 X110.848 Y120.206 E23.49081
G1 X110.57 Y120.175 E23.50476
G1 X105.43 Y120.175 E23.7612
G1 X105.152 Y120.206 E23.77515
G1 X104.892 Y120.298 E23.78891
G1 X104.653 Y120.448 E23.80299
G1 X104.463 Y120.638 E23.8164
G1 X104.313 Y120.877 E23.83047
G1 X104.221 Y121.137 E23.84423
G1 X104.19 Y121.415 E23.85819
G1 X104.19 Y122.715 E23.92305
G0 F3600 X104.39 Y122.715
G0 X104.39 Y123.215
G0 X112.238 Y123.143
G0 X112.836 Y121.14
G0 X113.328 Y120.936
G1 F1800 X113.328 Y125.064 E24.12899
G1 X113.104 Y125.288 E24.1448
G1 X102.938 Y125.289 E24.65198
G1 X102.897 Y125.289 E24.65403
G1 X102.672 Y125.064 E24.6699
G1 X102.672 Y125.023 E24.67195
G1 X102.672 Y120.936 E24.87585
G1 X103.941 Y119.667 E24.96538
G1 X112.059 Y119.667 E25.37039
G1 X113.328 Y120.936 E25.45993
G0 F3600 X113.328 Y121.136
G0 X112.828 Y121.136
G0 X112.538 Y123.505
;TYPE:SKIN
G1 F1800 X112.538 Y124.498 E25.50947
G1 X103.462 Y124.499 E25.96227
G1 X103.462 Y123.505 E26.01186
G1 X112.538 Y123.505 E26.46466
G0 F3600 X112.358 Y124.237
G1 F1800 X111.804 Y123.684 E26.50372
G0 F3600 X111.239 Y123.684
G1 F1800 X111.872 Y124.317 E26.54838
G1 X111.942 Y124.387
G0 F3600 X111.306 Y124.317
G1 F1800 X110.673 Y123.684 E26.59304
G1 X110.603 Y123.614
G0 F3600 X110.107 Y123.684
G1 F1800 X110.74 Y124.317 E26.6377
G1 X110.81 Y124.387
G0 F3600 X110.175 Y124.317
G1 F1800 X109.542 Y123.684 E26.68236
G1 X109.472 Y123.614
G0 F3600 X108.976 Y123.684
G1 F1800 X109.609 Y124.317 E26.72702
G1 X109.679 Y124.387
G0 F3600 X109.043 Y124.317
G1 F1800 X108.41 Y123.684 E26.77169
G1 X108.34 Y123.614
G0 F3600 X107.845 Y123.684
G1 F1800 X108.477 Y124.317 E26.81631
G1 X108.547 Y124.387
G0 F3600 X107.912 Y124.317
G1 F1800 X107.279 Y123.684 E26.86097
G1 X107.209 Y123.614
G0 F3600 X106.713 Y123.684
G1 F1800 X107.346 Y124.317 E26.90564
G1 X107.416 Y124.387
G0 F3600 X106.78 Y124.317
G1 F1800 X106.148 Y123.684 E26.95026
G1 X106.078 Y123.614
G0 F3600 X105.582 Y123.684
G1 F1800 X106.215 Y124.317 E26.99492
G1 X106.285 Y124.387
G0 F3600 X105.649 Y124.317
G1 F1800 X105.016 Y123.684 E27.03959
G1 X104.946 Y123.614
G0 F3600 X104.45 Y123.684
G1 F1800 X105.083 Y124.317 E27.08425
G1 X105.153 Y124.387
G0 F3600 X104.518 Y124.317
G1 F1800 X103.885 Y123.684 E27.12891
G1 X103.815 Y123.614
G0 F3600 X103.642 Y124.006
G1 F1800 X103.952 Y124.317 E27.15082
G0 F3600 X103.51 Y123.309
G0 X103.38 Y123.179
G1 F1800 X103.43 Y122.946 E27.16169
G1 X103.43 Y122.663 E27.17433
G1 X103.43 Y122.38 E27.18697
G1 X103.43 Y122.098 E27.19956
G1 X103.43 Y121.815 E27.2122
G1 X103.43 Y121.532 E27.22483
G1 X103.456 Y121.275 E27.23653
G1 X103.539 Y121.075 E27.24525
G1 X103.632 Y120.886 E27.25019
G0 F3600 X103.679 Y120.932
G0 X103.762 Y123.143
G0 X112.238 Y123.143
G0 X112.252 Y120.737
G0 X112.5 Y120.985
G1 F1800 X112.554 Y121.322 E27.26573
G1 X112.568 Y121.619 E27.27889
G1 X112.568 Y121.902 E27.29156
G1 X112.568 Y122.185 E27.30424
G1 X112.568 Y122.468 E27.31691
G1 X112.568 Y122.751 E27.32958
G1 X112.568 Y123.033 E27.34221
G1 X112.475 Y123.223 E27.35157
G0 F3600 X112.561 Y123.309
G0 X112.209 Y121.039
G0 X112.085 Y120.685
G0 X111.972 Y120.503
G0 X111.588 Y120.093
G0 X111.198 Y119.966
G1 F1800 X110.906 Y119.957 E27.35864
G1 X110.59 Y119.923 E27.36419
G1 X110.303 Y119.92 E27.36845
G1 X110.02 Y119.92 E27.37262
G1 X109.737 Y119.92 E27.37678
G1 X109.454 Y119.92 E27.38095
G1 X109.172 Y119.92 E27.3851
G1 X108.889 Y119.92 E27.38926
G1 X108.606 Y119.92 E27.39343
G1 X108.323 Y119.92 E27.39759
G1 X108.04 Y119.92 E27.40176
G1 X107.757 Y119.92 E27.40592
G1 X107.474 Y119.92 E27.41009
G1 X107.192 Y119.92 E27.41424
G1 X106.909 Y119.92 E27.4184
G1 X106.626 Y119.92 E27.42257
G1 X106.343 Y119.92 E27.42673
G1 X106.06 Y119.92 E27.4309
G1 X105.777 Y119.92 E27.43506
G1 X105.495 Y119.92 E27.43921
G1 X105.219 Y119.927 E27.44362
G1 X104.958 Y119.948 E27.44901
G1 X104.745 Y120.018 E27.45527
G1 F1500 E20.95527
G0 F3600 X104.412 Y120.093
G0 X104.489 Y120.072
G0 X104.489 Y118.802
G0 X105.737 Y118.482
G0 X107.004 Y117.712
G0 X109.93 Y117.159
G0 X110 Y117.229
;TIME_ELAPSED:30.190005
;LAYER:1
M140 S60
M106 S255
G0 F5400 X110 Y117.229 Z0.45
;TYPE:WALL-INNER
G1 F1500 E27.45527
G1 F3300 X110 Y117.726 E27.46767
G1 X106.99 Y117.726 E27.54276
G1 X106.99 Y117.229 E27.55515
G1 X105.258 Y117.229 E27.59836
