;FLAVOR:Marlin
;TIME:8082
;Filament used: 6.94694m
;Layer height: 0.15
;Generated with Cura_SteamEngine 3.3.0
M190 S60
M104 S210
M109 S210
M82 ;absolute extrusion mode
G21 ;metric values
G90 ;absolute positioning
M82 ;set extruder to absolute mode
M107 ;start with the fan off
G28 X0 Y0 ;move X/Y to min endstops
G28 Z0 ;move Z to min endstops
G1 Z15.0 F9000 ;move the platform down 15mm
G92 E0 ;zero the extruded length
G1 F200 E3 ;extrude 3mm of feed stock
G92 E0 ;zero the extruded length again
G1 F9000
;Put printing message on LCD screen
M117 Printing...
G92 E0
G1 F1500 E-6.5
;LAYER_COUNT:45
;LAYER:0
M107
G0 F3600 X33.52 Y60.477 Z0.3
;TYPE:SKIRT
G1 F1500 E0
G1 F1800 X34.174 Y60.164 E0.03617
G1 X35.25 Y59.792 E0.09297
G1 X35.74 Y59.665 E0.11823
G1 X36.056 Y59.625 E0.13412
G1 X37.8 Y59.494 E0.22137
G1 X38.04 Y59.485 E0.23335
G1 X182.606 Y59.494 E7.44578
G1 X182.964 Y59.514 E7.46367
G1 X184.084 Y59.64 E7.5199
G1 X184.785 Y59.8 E7.55577
G1 X185.846 Y60.172 E7.61186
G1 X186.486 Y60.48 E7.6473
G1 X187.434 Y61.074 E7.70311
G1 X187.993 Y61.519 E7.73876
G1 X188.788 Y62.311 E7.79474
G1 X189.24 Y62.876 E7.83084
G1 X189.835 Y63.823 E7.88664
G1 X190.142 Y64.458 E7.92183
G1 X190.521 Y65.53 E7.97855
G1 X190.685 Y66.251 E8.01544
G1 X190.813 Y67.427 E8.07446
G1 X190.832 Y67.773 E8.09175
G1 X190.824 Y152.367 E12.31216
G1 X190.803 Y152.733 E12.33045
G1 X190.684 Y153.768 E12.38243
G1 X190.523 Y154.465 E12.41812
G1 X190.145 Y155.538 E12.47487
G1 X189.828 Y156.191 E12.51109
G1 X189.218 Y157.151 E12.56783
G1 X188.778 Y157.699 E12.60289
G1 X188.006 Y158.47 E12.65733
G1 X187.448 Y158.915 E12.69294
G1 X186.498 Y159.512 E12.74891
G1 X185.858 Y159.821 E12.78437
G1 X184.788 Y160.198 E12.84097
G1 X184.069 Y160.361 E12.87775
G1 X182.896 Y160.488 E12.93661
G1 X182.552 Y160.507 E12.9538
G1 X37.339 Y160.502 E20.19851
G1 X36.961 Y160.48 E20.2174
G1 X35.868 Y160.35 E20.27231
G1 X35.164 Y160.183 E20.30841
G1 X34.09 Y159.797 E20.36535
G1 X33.464 Y159.492 E20.40009
G1 X32.556 Y158.919 E20.45365
G1 X32.001 Y158.476 E20.48908
G1 X31.201 Y157.676 E20.54553
G1 X30.752 Y157.112 E20.58149
G1 X30.15 Y156.151 E20.63807
G1 X29.837 Y155.497 E20.67424
G1 X29.466 Y154.423 E20.73093
G1 X29.34 Y153.933 E20.75617
G1 X29.3 Y153.618 E20.77201
G1 X29.169 Y151.875 E20.85922
G1 X29.16 Y151.635 E20.8712
G1 X29.169 Y67.72 E25.05773
G1 X29.189 Y67.363 E25.07557
G1 X29.315 Y66.242 E25.13185
G1 X29.479 Y65.531 E25.16826
G1 X29.864 Y64.444 E25.22579
G1 X30.175 Y63.802 E25.26138
G1 X30.76 Y62.877 E25.31598
G1 X31.201 Y62.326 E25.35119
G1 X31.999 Y61.527 E25.40753
G1 X32.563 Y61.077 E25.44353
G1 X33.52 Y60.477 E25.49988
G1 F1500 E18.99988
G0 F3600 X32.332 Y65.121
G0 X33.419 Y65.804
G0 X47.81 Y149.915
G0 X47.88 Y149.845
;TYPE:WALL-INNER
G1 F1500 E25.49988
G1 F1800 X48.08 Y149.845 E25.50986
G1 X173.27 Y149.845 E31.75561
G1 X173.47 Y149.845 E31.76559
G1 X173.47 Y149.645 E31.77205
G1 X173.469 Y69.156 E35.78766
G1 X47.881 Y69.156 E42.05327
G1 X47.88 Y149.645 E46.06889
G1 X47.88 Y149.845 E46.07535
G0 F3600 X47.81 Y149.915
G0 X173.498 Y149.873
G0 X183.574 Y63.495
G0 X183.596 Y63.398
G1 F1800 X184.53 Y63.726 E46.12473
G1 X185.37 Y64.254 E46.17423
G1 X186.071 Y64.955 E46.22369
G1 X186.599 Y65.795 E46.27319
G1 X186.927 Y66.73 E46.32263
G1 X187.04 Y67.748 E46.37373
G1 X187.04 Y152.252 E50.58965
G1 X186.927 Y153.27 E50.64075
G1 X186.599 Y154.205 E50.69018
G1 X186.071 Y155.045 E50.73968
G1 X185.37 Y155.746 E50.78914
G1 X184.53 Y156.274 E50.83864
G1 X183.595 Y156.602 E50.88807
G1 X182.577 Y156.715 E50.93917
G1 X37.424 Y156.716 E58.18089
G1 X36.404 Y156.602 E58.23209
G1 X35.47 Y156.274 E58.28148
G1 X34.63 Y155.746 E58.33098
G1 X33.929 Y155.045 E58.38044
G1 X33.401 Y154.205 E58.42994
G1 X33.073 Y153.27 E58.47937
G1 X32.96 Y152.252 E58.53047
G1 X32.959 Y67.749 E62.74634
G1 X33.073 Y66.729 E62.79755
G1 X33.401 Y65.795 E62.84693
G1 X33.929 Y64.955 E62.89643
G1 X34.63 Y64.254 E62.94589
G1 X35.47 Y63.726 E62.99539
G1 X36.405 Y63.398 E63.04483
G1 X37.423 Y63.285 E63.09593
G1 X182.576 Y63.284 E70.33764
G1 X183.596 Y63.398 E70.38884
G0 F3600 X183.682 Y63.005
;TYPE:WALL-OUTER
G1 F1800 X184.707 Y63.365 E70.44304
G1 X185.621 Y63.939 E70.49689
G1 X186.386 Y64.704 E70.55086
G1 X186.96 Y65.618 E70.60471
G1 X187.32 Y66.643 E70.65891
G1 X187.44 Y67.722 E70.71307
G1 X187.44 Y152.278 E74.93159
G1 X187.32 Y153.357 E74.98575
G1 X186.96 Y154.382 E75.03995
G1 X186.386 Y155.296 E75.0938
G1 X185.621 Y156.061 E75.14777
G1 X184.707 Y156.635 E75.20162
G1 X183.682 Y156.995 E75.25582
G1 X182.603 Y157.115 E75.30998
G1 X37.397 Y157.116 E82.55434
G1 X36.318 Y156.995 E82.60851
G1 X35.293 Y156.635 E82.66271
G1 X34.379 Y156.061 E82.71656
G1 X33.614 Y155.296 E82.77053
G1 X33.04 Y154.382 E82.82438
G1 X32.68 Y153.357 E82.87858
G1 X32.56 Y152.278 E82.93274
G1 X32.559 Y67.722 E87.15126
G1 X32.68 Y66.643 E87.20542
G1 X33.04 Y65.618 E87.25962
G1 X33.614 Y64.704 E87.31347
G1 X34.379 Y63.939 E87.36745
G1 X35.293 Y63.365 E87.42129
G1 X36.318 Y63.005 E87.47549
G1 X37.397 Y62.885 E87.52965
G1 X182.603 Y62.884 E94.77401
G1 X183.682 Y63.005 E94.82818
G0 F3600 X183.87 Y63.071
G0 X183.704 Y63.541
G0 X173.498 Y149.873
G0 X47.852 Y149.873
G0 X47.781 Y149.444
G0 X48.28 Y149.445
G1 F1800 X48.48 Y149.445 E94.83816
G1 X172.87 Y149.445 E101.044
G1 X173.07 Y149.445 E101.05398
G1 X173.07 Y149.245 E101.06044
G1 X173.069 Y69.556 E105.03614
G1 X48.281 Y69.556 E111.26184
G1 X48.28 Y149.245 E115.23754
G1 X48.28 Y149.445 E115.244
G0 F3600 X48.48 Y149.445
G0 X48.48 Y149.945
G0 X47.49 Y150.235
;TYPE:SKIN
G1 F1800 X173.86 Y150.235 E121.54862
G1 X173.859 Y68.766 E125.61313
G1 X47.491 Y68.766 E131.91765
G1 X47.49 Y150.235 E135.98216
G0 F3600 X37.449 Y156.326
G1 F1800 X36.49 Y156.219 E136.0303
G1 X35.639 Y155.92 E136.0753
G1 X34.872 Y155.438 E136.1205
G1 X34.237 Y154.803 E136.1653
G1 X33.756 Y154.036 E136.21047
G1 X33.456 Y153.184 E136.25553
G1 X33.35 Y152.227 E136.30357
G1 X33.349 Y67.774 E140.51695
G1 X33.456 Y66.815 E140.56509
G1 X33.755 Y65.964 E140.61009
G1 X34.237 Y65.197 E140.65528
G1 X34.872 Y64.562 E140.70009
G1 X35.639 Y64.081 E140.74525
G1 X36.491 Y63.781 E140.79032
G1 X37.448 Y63.675 E140.83835
G1 X182.551 Y63.674 E148.07757
G1 X183.51 Y63.781 E148.12571
G1 X184.361 Y64.08 E148.17071
G1 X185.128 Y64.562 E148.21591
G1 X185.763 Y65.197 E148.26071
G1 X186.244 Y65.964 E148.30588
G1 X186.544 Y66.816 E148.35094
G1 X186.65 Y67.773 E148.39898
G1 X186.65 Y152.227 E152.61241
G1 X186.544 Y153.184 E152.66045
G1 X186.244 Y154.036 E152.70551
G1 X185.763 Y154.803 E152.75068
G1 X185.128 Y155.438 E152.79548
G1 X184.361 Y155.919 E152.84065
G1 X183.509 Y156.219 E152.88571
G1 X182.552 Y156.325 E152.93375
G1 X37.449 Y156.326 E160.17297
G0 F3600 X35.891 Y155.816
G1 F1800 X33.856 Y153.782 E160.31651
G1 X33.786 Y153.712
G0 F3600 X33.612 Y152.971
G1 F1800 X36.7 Y156.06 E160.53442
G1 X36.77 Y156.13
G0 F3600 X37.336 Y156.13
G1 F1800 X33.543 Y152.337 E160.80204
G1 X33.473 Y152.267
G0 F3600 X33.529 Y151.757
G1 F1800 X37.916 Y156.144 E161.11157
G1 X37.986 Y156.214
G0 F3600 X38.482 Y156.144
G1 F1800 X33.529 Y151.192 E161.46099
G1 X33.459 Y151.122
G0 F3600 X33.529 Y150.626
G1 F1800 X39.047 Y156.144 E161.85032
G1 X39.117 Y156.214
G0 F3600 X39.613 Y156.144
G1 F1800 X33.529 Y150.06 E162.27958
G1 X33.459 Y149.99
G0 F3600 X33.529 Y149.495
G1 F1800 X40.179 Y156.144 E162.74873
G1 X40.249 Y156.214
G0 F3600 X40.744 Y156.144
G1 F1800 X33.529 Y148.929 E163.25779
G1 X33.459 Y148.859
G0 F3600 X33.529 Y148.363
G1 F1800 X41.31 Y156.144 E163.80678
G1 X41.38 Y156.214
G0 F3600 X41.876 Y156.144
G1 F1800 X33.529 Y147.798 E164.39567
G1 X33.459 Y147.728
G0 F3600 X33.529 Y147.232
G1 F1800 X42.441 Y156.144 E165.02446
G1 X42.511 Y156.214
G0 F3600 X43.007 Y156.144
G1 F1800 X33.529 Y146.666 E165.69319
G1 X33.459 Y146.596
G0 F3600 X33.529 Y146.1
G1 F1800 X43.573 Y156.144 E166.40185
G1 X43.643 Y156.214
G0 F3600 X44.139 Y156.144
G1 F1800 X33.529 Y145.535 E167.1504
G1 X33.459 Y145.465
G0 F3600 X33.529 Y144.969
G1 F1800 X44.704 Y156.144 E167.93886
G1 X44.774 Y156.214
G0 F3600 X45.27 Y156.144
G1 F1800 X33.529 Y144.403 E168.76725
G1 X33.459 Y144.333
G0 F3600 X33.529 Y143.838
G1 F1800 X45.836 Y156.144 E169.63554
G1 X45.906 Y156.214
G0 F3600 X46.401 Y156.144
G1 F1800 X33.529 Y143.272 E170.54373
G1 X33.459 Y143.202
G0 F3600 X33.529 Y142.706
G1 F1800 X46.967 Y156.144 E171.49185
G1 X47.037 Y156.214
G0 F3600 X47.533 Y156.144
G1 F1800 X33.529 Y142.141 E172.47988
G1 X33.459 Y142.071
G0 F3600 X33.529 Y141.575
G1 F1800 X48.098 Y156.144 E173.5078
G1 X48.168 Y156.214
G0 F3600 X48.664 Y156.144
G1 F1800 X33.529 Y141.009 E174.57565
G1 X33.459 Y140.939
G0 F3600 X33.529 Y140.444
G1 F1800 X49.23 Y156.144 E175.68341
G1 X49.3 Y156.214
G0 F3600 X49.795 Y156.144
G1 F1800 X33.529 Y139.878 E176.83106
G1 X33.459 Y139.808
G0 F3600 X33.529 Y139.312
G1 F1800 X50.361 Y156.144 E178.01865
G1 X50.431 Y156.214
G0 F3600 X50.927 Y156.144
G1 F1800 X33.529 Y138.747 E179.24614
G1 X33.459 Y138.677
G0 F3600 X33.529 Y138.181
G1 F1800 X51.492 Y156.144 E180.51353
G1 X51.562 Y156.214
G0 F3600 X52.058 Y156.144
G1 F1800 X33.529 Y137.615 E181.82085
G1 X33.459 Y137.545
G0 F3600 X33.529 Y137.05
G1 F1800 X52.624 Y156.144 E183.16807
G1 X52.694 Y156.214
G0 F3600 X53.189 Y156.144
G1 F1800 X47.46 Y150.415 E183.57228
G1 X47.39 Y150.345
G0 F3600 X47.31 Y150.265
G1 F1800 X33.529 Y136.484 E184.5446
G1 X33.459 Y136.414
G0 F3600 X33.529 Y135.918
G1 F1800 X47.31 Y149.699 E185.51693
G1 X47.38 Y149.769
G0 F3600 X47.31 Y149.133
G1 F1800 X33.529 Y135.352 E186.48925
G1 X33.459 Y135.282
G0 F3600 X33.529 Y134.787
G1 F1800 X47.31 Y148.568 E187.46157
G1 X47.38 Y148.638
G0 F3600 X47.31 Y148.002
G1 F1800 X33.529 Y134.221 E188.4339
G1 X33.459 Y134.151
G0 F3600 X33.529 Y133.655
G1 F1800 X47.31 Y147.436 E189.40622
G1 X47.38 Y147.506
G0 F3600 X47.31 Y146.871
G1 F1800 X33.529 Y133.09 E190.37855
G1 X33.459 Y133.02
G0 F3600 X33.529 Y132.524
G1 F1800 X47.31 Y146.305 E191.35087
G1 X47.38 Y146.375
G0 F3600 X47.31 Y145.739
G1 F1800 X33.529 Y131.958 E192.32319
G1 X33.459 Y131.888
G0 F3600 X33.529 Y131.393
G1 F1800 X47.31 Y145.173 E193.29548
G1 X47.38 Y145.243
G0 F3600 X47.31 Y144.608
G1 F1800 X33.529 Y130.827 E194.26781
G1 X33.459 Y130.757
G0 F3600 X33.529 Y130.261
G1 F1800 X47.31 Y144.042 E195.24013
G1 X47.38 Y144.112
G0 F3600 X47.31 Y143.476
G1 F1800 X33.529 Y129.696 E196.21242
G1 X33.459 Y129.626
G0 F3600 X33.529 Y129.13
G1 F1800 X47.31 Y142.911 E197.18474
G1 X47.38 Y142.981
G0 F3600 X47.31 Y142.345
G1 F1800 X33.529 Y128.564 E198.15707
G1 X33.459 Y128.494
G0 F3600 X33.529 Y127.999
G1 F1800 X47.31 Y141.779 E199.12936
G1 X47.38 Y141.849
G0 F3600 X47.31 Y141.214
G1 F1800 X33.529 Y127.433 E200.10168
G1 X33.459 Y127.363
G0 F3600 X33.529 Y126.867
G1 F1800 X47.31 Y140.648 E201.074
G1 X47.38 Y140.718
G0 F3600 X47.31 Y140.082
G1 F1800 X33.529 Y126.301 E202.04633
G1 X33.459 Y126.231
G0 F3600 X33.529 Y125.736
G1 F1800 X47.31 Y139.517 E203.01865
G1 X47.38 Y139.587
G0 F3600 X47.31 Y138.951
G1 F1800 X33.529 Y125.17 E203.99098
G1 X33.459 Y125.1
G0 F3600 X33.529 Y124.604
G1 F1800 X47.31 Y138.385 E204.9633
G1 X47.38 Y138.455
G0 F3600 X47.31 Y137.82
G1 F1800 X33.529 Y124.039 E205.93562
G1 X33.459 Y123.969
G0 F3600 X33.529 Y123.473
G1 F1800 X47.31 Y137.254 E206.90795
G1 X47.38 Y137.324
G0 F3600 X47.31 Y136.688
G1 F1800 X33.529 Y122.907 E207.88027
G1 X33.459 Y122.837
G0 F3600 X33.529 Y122.342
G1 F1800 X47.31 Y136.123 E208.8526
G1 X47.38 Y136.193
G0 F3600 X47.31 Y135.557
G1 F1800 X33.529 Y121.776 E209.82492
G1 X33.459 Y121.706
G0 F3600 X33.529 Y121.21
G1 F1800 X47.31 Y134.991 E210.79724
G1 X47.38 Y135.061
G0 F3600 X47.31 Y134.425
G1 F1800 X33.529 Y120.645 E211.76953
G1 X33.459 Y120.575
G0 F3600 X33.529 Y120.079
G1 F1800 X47.31 Y133.86 E212.74186
G1 X47.38 Y133.93
G0 F3600 X47.31 Y133.294
G1 F1800 X33.529 Y119.513 E213.71418
G1 X33.459 Y119.443
G0 F3600 X33.529 Y118.948
G1 F1800 X47.31 Y132.728 E214.68647
G1 X47.38 Y132.798
G0 F3600 X47.31 Y132.163
G1 F1800 X33.529 Y118.382 E215.65879
G1 X33.459 Y118.312
G0 F3600 X33.529 Y117.816
G1 F1800 X47.31 Y131.597 E216.63112
G1 X47.38 Y131.667
G0 F3600 X47.31 Y131.031
G1 F1800 X33.529 Y117.251 E217.60341
G1 X33.459 Y117.181
G0 F3600 X33.529 Y116.685
G1 F1800 X47.31 Y130.466 E218.57573
G1 X47.38 Y130.536
G0 F3600 X47.31 Y129.9
G1 F1800 X33.529 Y116.119 E219.54805
G1 X33.459 Y116.049
G0 F3600 X33.529 Y115.553
G1 F1800 X47.31 Y129.334 E220.52038
G1 X47.38 Y129.404
G0 F3600 X47.31 Y128.769
G1 F1800 X33.529 Y114.988 E221.4927
G1 X33.459 Y114.918
G0 F3600 X33.529 Y114.422
G1 F1800 X47.31 Y128.203 E222.46503
G1 X47.38 Y128.273
G0 F3600 X47.31 Y127.637
G1 F1800 X33.529 Y113.856 E223.43735
G1 X33.459 Y113.786
G0 F3600 X33.529 Y113.291
G1 F1800 X47.31 Y127.072 E224.40967
G1 X47.38 Y127.142
G0 F3600 X47.31 Y126.506
G1 F1800 X33.529 Y112.725 E225.382
G1 X33.459 Y112.655
G0 F3600 X33.529 Y112.159
G1 F1800 X47.31 Y125.94 E226.35432
G1 X47.38 Y126.01
G0 F3600 X47.31 Y125.374
G1 F1800 X33.529 Y111.594 E227.32661
G1 X33.459 Y111.524
G0 F3600 X33.529 Y111.028
G1 F1800 X47.31 Y124.809 E228.29893
G1 X47.38 Y124.879
G0 F3600 X47.31 Y124.243
G1 F1800 X33.529 Y110.462 E229.27126
G1 X33.459 Y110.392
G0 F3600 X33.528 Y109.896
G1 F1800 X47.31 Y123.677 E230.24362
G1 X47.38 Y123.747
G0 F3600 X47.31 Y123.112
G1 F1800 X33.528 Y109.33 E231.21601
G1 X33.458 Y109.26
G0 F3600 X33.528 Y108.765
G1 F1800 X47.31 Y122.546 E232.18837
G1 X47.38 Y122.616
G0 F3600 X47.31 Y121.98
G1 F1800 X33.528 Y108.199 E233.16073
G1 X33.458 Y108.129
G0 F3600 X33.528 Y107.633
G1 F1800 X47.31 Y121.415 E234.13313
G1 X47.38 Y121.485
G0 F3600 X47.31 Y120.849
G1 F1800 X33.528 Y107.067 E235.10552
G1 X33.458 Y106.997
G0 F3600 X33.528 Y106.502
G1 F1800 X47.31 Y120.283 E236.07788
G1 X47.38 Y120.353
G0 F3600 X47.31 Y119.718
G1 F1800 X33.528 Y105.936 E237.05027
G1 X33.458 Y105.866
G0 F3600 X33.528 Y105.37
G1 F1800 X47.31 Y119.152 E238.02267
G1 X47.38 Y119.222
G0 F3600 X47.31 Y118.586
G1 F1800 X33.528 Y104.805 E238.99503
G1 X33.458 Y104.735
G0 F3600 X33.528 Y104.239
G1 F1800 X47.31 Y118.021 E239.96742
G1 X47.38 Y118.091
G0 F3600 X47.31 Y117.455
G1 F1800 X33.528 Y103.673 E240.93982
G1 X33.458 Y103.603
G0 F3600 X33.528 Y103.108
G1 F1800 X47.31 Y116.889 E241.91218
G1 X47.38 Y116.959
G0 F3600 X47.31 Y116.324
G1 F1800 X33.528 Y102.542 E242.88457
G1 X33.458 Y102.472
G0 F3600 X33.528 Y101.976
G1 F1800 X47.31 Y115.758 E243.85697
G1 X47.38 Y115.828
G0 F3600 X47.31 Y115.192
G1 F1800 X33.528 Y101.411 E244.82932
G1 X33.458 Y101.341
G0 F3600 X33.528 Y100.845
G1 F1800 X47.31 Y114.626 E245.80168
G1 X47.38 Y114.696
G0 F3600 X47.31 Y114.061
G1 F1800 X33.528 Y100.279 E246.77408
G1 X33.458 Y100.209
G0 F3600 X33.528 Y99.714
G1 F1800 X47.31 Y113.495 E247.74644
G1 X47.38 Y113.565
G0 F3600 X47.31 Y112.929
G1 F1800 X33.528 Y99.148 E248.7188
G1 X33.458 Y99.078
G0 F3600 X33.528 Y98.582
G1 F1800 X47.31 Y112.364 E249.69119
G1 X47.38 Y112.434
G0 F3600 X47.31 Y111.798
G1 F1800 X33.528 Y98.017 E250.66355
G1 X33.458 Y97.947
G0 F3600 X33.528 Y97.451
G1 F1800 X47.31 Y111.232 E251.63591
G1 X47.38 Y111.302
G0 F3600 X47.31 Y110.667
G1 F1800 X33.528 Y96.885 E252.6083
G1 X33.458 Y96.815
G0 F3600 X33.528 Y96.319
G1 F1800 X47.31 Y110.101 E253.5807
G1 X47.38 Y110.171
G0 F3600 X47.31 Y109.535
G1 F1800 X33.528 Y95.754 E254.55306
G1 X33.458 Y95.684
G0 F3600 X33.528 Y95.188
G1 F1800 X47.311 Y108.97 E255.52549
G1 X47.381 Y109.04
G0 F3600 X47.311 Y108.405
G1 F1800 X33.528 Y94.622 E256.49795
G1 X33.458 Y94.552
G0 F3600 X33.528 Y94.057
G1 F1800 X47.311 Y107.839 E257.47038
G1 X47.381 Y107.909
G0 F3600 X47.311 Y107.273
G1 F1800 X33.528 Y93.491 E258.44281
G1 X33.458 Y93.421
G0 F3600 X33.528 Y92.925
G1 F1800 X47.311 Y106.708 E259.41528
G1 X47.381 Y106.778
G0 F3600 X47.311 Y106.142
G1 F1800 X33.528 Y92.36 E260.38771
G1 X33.458 Y92.29
G0 F3600 X33.528 Y91.794
G1 F1800 X47.311 Y105.576 E261.36014
G1 X47.381 Y105.646
G0 F3600 X47.311 Y105.011
G1 F1800 X33.528 Y91.228 E262.3326
G1 X33.458 Y91.158
G0 F3600 X33.528 Y90.663
G1 F1800 X47.311 Y104.445 E263.30503
G1 X47.381 Y104.515
G0 F3600 X47.311 Y103.879
G1 F1800 X33.528 Y90.097 E264.27746
G1 X33.458 Y90.027
G0 F3600 X33.528 Y89.531
G1 F1800 X47.311 Y103.313 E265.24989
G1 X47.381 Y103.383
G0 F3600 X47.311 Y102.748
