;FLAVOR:Marlin
;TIME:77
;Filament used: 0.0748628m
;Layer height: 0.15
;Generated with Cura_SteamEngine 3.3.0
M190 S60
M104 S210
M109 S210
M82 ;absolute extrusion mode
G21 ;metric values
G90 ;absolute positioning
M82 ;set extruder to absolute mode
M107 ;start with the fan off
G28 X0 Y0 ;move X/Y to min endstops
G28 Z0 ;move Z to min endstops
G1 Z15.0 F9000 ;move the platform down 15mm
G92 E0 ;zero the extruded length
G1 F200 E3 ;extrude 3mm of feed stock
G92 E0 ;zero the extruded length again
G1 F9000
;Put printing message on LCD screen
M117 Printing...
G92 E0
G1 F1500 E-6.5
;LAYER_COUNT:12
;LAYER:0
M107
G0 F3600 X100.041 Y100.909 Z0.3
;TYPE:SKIRT
G1 F1500 E0
G1 F1800 X100.489 Y100.52 E0.0296
G1 X100.985 Y100.196 E0.05916
G1 X101.52 Y99.94 E0.08875
G1 X102.085 Y99.759 E0.11835
G1 X102.669 Y99.656 E0.14793
G1 X103.144 Y99.63 E0.17167
G1 X116.86 Y99.633 E0.85596
G1 X117.452 Y99.673 E0.88556
G1 X118.032 Y99.792 E0.9151
G1 X118.592 Y99.989 E0.94472
G1 X119.12 Y100.258 E0.97428
G1 X119.607 Y100.597 E1.00388
G1 X119.85 Y100.806 E1.01988
G1 X119.946 Y100.895 E1.02641
G1 X120.105 Y101.05 E1.03748
G1 X120.344 Y101.295 E1.05456
G1 X120.728 Y101.746 E1.08411
G1 X121.048 Y102.245 E1.11369
G1 X121.299 Y102.782 E1.14326
G1 X121.475 Y103.349 E1.17288
G1 X121.573 Y103.934 E1.20247
G1 X121.594 Y104.367 E1.2241
G1 X121.594 Y115.632 E1.78611
G1 X121.554 Y116.224 E1.81571
G1 X121.435 Y116.804 E1.84525
G1 X121.239 Y117.364 E1.87485
G1 X120.969 Y117.892 E1.90444
G1 X120.631 Y118.379 E1.93402
G1 X120.301 Y118.748 E1.95871
G1 X119.964 Y119.084 E1.98245
G1 X119.516 Y119.473 E2.01206
G1 X119.021 Y119.799 E2.04163
G1 X118.486 Y120.055 E2.07122
G1 X117.922 Y120.237 E2.10078
G1 X117.338 Y120.342 E2.13039
G1 X116.857 Y120.368 E2.15442
G1 X103.144 Y120.369 E2.83856
G1 X102.553 Y120.329 E2.86811
G1 X101.972 Y120.21 E2.8977
G1 X101.412 Y120.014 E2.9273
G1 X100.884 Y119.744 E2.95689
G1 X100.397 Y119.406 E2.98646
G1 X100.153 Y119.196 E3.00252
G1 X100.044 Y119.095 E3.00994
G1 X99.883 Y118.938 E3.02116
G1 X99.658 Y118.707 E3.03725
G1 X99.274 Y118.255 E3.06684
G1 X98.954 Y117.756 E3.09641
G1 X98.704 Y117.218 E3.12601
G1 X98.529 Y116.652 E3.15556
G1 X98.431 Y116.067 E3.18516
G1 X98.41 Y115.634 E3.20678
G1 X98.417 Y104.351 E3.7697
G1 X98.457 Y103.76 E3.79925
G1 X98.577 Y103.179 E3.82885
G1 X98.773 Y102.619 E3.85845
G1 X99.043 Y102.091 E3.88803
G1 X99.382 Y101.605 E3.9176
G1 X99.715 Y101.233 E3.9425
G1 X100.041 Y100.909 E3.96543
G0 F3600 X100.323 Y101.193
G1 F1800 X100.751 Y100.824 E3.99363
G1 X101.227 Y100.519 E4.02183
G1 X101.742 Y100.284 E4.05007
G1 X102.284 Y100.123 E4.07828
G1 X102.843 Y100.041 E4.10647
G1 X103.144 Y100.03 E4.1215
G1 X116.86 Y100.033 E4.80579
G1 X117.424 Y100.073 E4.834
G1 X117.976 Y100.192 E4.86217
G1 X118.507 Y100.388 E4.89041
G1 X119.004 Y100.657 E4.9186
G1 X119.578 Y101.1 E4.95478
G1 X119.674 Y101.189 E4.96131
G1 X119.818 Y101.329 E4.97133
G1 X120.057 Y101.574 E4.98841
G1 X120.422 Y102.005 E5.01658
G1 X120.723 Y102.484 E5.04481
G1 X120.953 Y103 E5.07299
G1 X121.108 Y103.544 E5.10121
G1 X121.194 Y104.367 E5.1425
G1 X121.194 Y115.632 E5.70451
G1 X121.154 Y116.196 E5.73272
G1 X121.035 Y116.749 E5.76094
G1 X120.839 Y117.279 E5.78913
G1 X120.571 Y117.776 E5.8173
G1 X120.235 Y118.231 E5.84552
G1 X120.018 Y118.465 E5.86144
G1 X119.681 Y118.801 E5.88518
G1 X119.254 Y119.17 E5.91334
G1 X118.778 Y119.476 E5.94157
G1 X118.264 Y119.712 E5.96979
G1 X117.723 Y119.873 E5.99795
G1 X117.163 Y119.956 E6.02619
G1 X116.857 Y119.968 E6.04147
G1 X103.144 Y119.969 E6.72561
G1 X102.58 Y119.929 E6.75382
G1 X102.028 Y119.81 E6.78199
G1 X101.497 Y119.614 E6.81023
G1 X101 Y119.346 E6.8384
G1 X100.425 Y118.903 E6.87462
G1 X100.316 Y118.802 E6.88203
G1 X100.17 Y118.659 E6.89223
G1 X99.945 Y118.428 E6.90831
G1 X99.58 Y117.996 E6.93653
G1 X99.279 Y117.517 E6.96475
G1 X99.05 Y117.001 E6.99292
G1 X98.895 Y116.457 E7.02114
G1 X98.81 Y115.635 E7.06237
G1 X98.817 Y104.352 E7.62528
G1 X98.857 Y103.788 E7.65349
G1 X98.977 Y103.235 E7.68172
G1 X99.173 Y102.705 E7.70991
G1 X99.442 Y102.208 E7.73811
G1 X99.778 Y101.753 E7.76632
G1 X99.997 Y101.517 E7.78239
G1 X100.323 Y101.193 E7.80532
G0 F3600 X100.605 Y101.477
G1 F1800 X101.013 Y101.128 E7.8321
G1 X101.467 Y100.844 E7.85882
G1 X101.959 Y100.63 E7.88559
G1 X102.478 Y100.492 E7.91238
G1 X103.144 Y100.43 E7.94575
G1 X116.86 Y100.433 E8.63004
G1 X117.395 Y100.473 E8.65681
G1 X117.917 Y100.592 E8.68352
G1 X118.417 Y100.788 E8.71031
G1 X118.882 Y101.055 E8.73707
G1 X119.307 Y101.393 E8.76416
G1 X119.403 Y101.482 E8.77069
G1 X119.532 Y101.608 E8.77968
G1 X119.771 Y101.853 E8.79676
G1 X120.116 Y102.264 E8.82353
G1 X120.396 Y102.721 E8.85027
G1 X120.605 Y103.215 E8.87703
G1 X120.738 Y103.735 E8.90381
G1 X120.794 Y104.367 E8.93546
G1 X120.794 Y115.632 E9.49748
G1 X120.754 Y116.167 E9.52424
G1 X120.635 Y116.69 E9.551
G1 X120.44 Y117.189 E9.57773
G1 X120.172 Y117.654 E9.60451
G1 X119.736 Y118.181 E9.63863
G1 X119.399 Y118.517 E9.66237
G1 X118.992 Y118.867 E9.68915
G1 X118.538 Y119.152 E9.7159
G1 X118.046 Y119.366 E9.74266
G1 X117.528 Y119.505 E9.76942
G1 X116.857 Y119.568 E9.80304
G1 X103.144 Y119.569 E10.48719
G1 X102.609 Y119.529 E10.51396
G1 X102.087 Y119.41 E10.54067
G1 X101.587 Y119.215 E10.56744
G1 X101.122 Y118.948 E10.59419
G1 X100.697 Y118.61 E10.62128
G1 X100.588 Y118.509 E10.6287
G1 X100.456 Y118.38 E10.63791
G1 X100.231 Y118.149 E10.65399
G1 X99.887 Y117.738 E10.68073
G1 X99.607 Y117.28 E10.70751
G1 X99.398 Y116.786 E10.73427
G1 X99.265 Y116.267 E10.761
G1 X99.21 Y115.635 E10.79265
G1 X99.217 Y104.352 E11.35557
G1 X99.257 Y103.817 E11.38233
G1 X99.377 Y103.294 E11.4091
G1 X99.572 Y102.795 E11.43583
G1 X99.84 Y102.33 E11.46261
G1 X100.279 Y101.801 E11.4969
G1 X100.605 Y101.477 E11.51983
G0 F3600 X100.887 Y101.76
G1 F1800 X101.273 Y101.433 E11.54507
G1 X101.705 Y101.171 E11.57028
G1 X102.173 Y100.98 E11.5955
G1 X102.666 Y100.866 E11.62074
G1 X103.144 Y100.83 E11.64466
G1 X116.86 Y100.833 E12.32895
G1 X117.364 Y100.873 E12.35417
G1 X117.855 Y100.992 E12.37938
G1 X118.322 Y101.187 E12.40463
G1 X118.752 Y101.453 E12.42985
G1 X119.035 Y101.686 E12.44814
G1 X119.131 Y101.775 E12.45467
G1 X119.246 Y101.887 E12.46268
G1 X119.485 Y102.132 E12.47976
G1 X119.808 Y102.521 E12.50498
G1 X120.066 Y102.956 E12.53022
G1 X120.252 Y103.426 E12.55543
G1 X120.363 Y103.919 E12.58065
G1 X120.394 Y104.367 E12.60305
G1 X120.394 Y115.632 E13.16506
G1 X120.354 Y116.136 E13.19029
G1 X120.235 Y116.627 E13.21549
G1 X120.041 Y117.094 E13.24072
G1 X119.775 Y117.524 E13.26595
G1 X119.453 Y117.898 E13.29057
G1 X119.116 Y118.234 E13.31431
G1 X118.731 Y118.562 E13.33954
G1 X118.299 Y118.824 E13.36475
G1 X117.832 Y119.016 E13.38994
G1 X117.339 Y119.131 E13.4152
G1 X116.857 Y119.168 E13.43931
G1 X103.144 Y119.169 E14.12346
G1 X102.64 Y119.129 E14.14868
G1 X102.149 Y119.01 E14.17389
G1 X101.682 Y118.816 E14.19912
G1 X101.252 Y118.55 E14.22434
G1 X100.969 Y118.316 E14.24266
G1 X100.86 Y118.215 E14.25008
G1 X100.743 Y118.101 E14.25823
G1 X100.518 Y117.87 E14.27431
G1 X100.195 Y117.481 E14.29954
G1 X99.937 Y117.046 E14.32477
G1 X99.751 Y116.576 E14.34999
G1 X99.641 Y116.082 E14.37524
G1 X99.61 Y115.635 E14.39759
G1 X99.617 Y104.352 E14.96051
G1 X99.657 Y103.848 E14.98573
G1 X99.776 Y103.357 E15.01093
G1 X99.971 Y102.89 E15.03618
G1 X100.237 Y102.46 E15.06141
G1 X100.561 Y102.084 E15.08617
G1 X100.887 Y101.76 E15.1091
G1 F1500 E8.6091
G0 F3600 X102.497 Y103.722
G0 X103.41 Y104.634
G0 X103.596 Y104.72
G0 X103.596 Y104.62
;TYPE:WALL-INNER
G1 F1500 E15.1091
G1 F1800 X116.603 Y104.621 E15.75802
G1 X116.604 Y115.179 E16.28476
G1 X116.604 Y115.379 E16.29474
G1 X116.404 Y115.379 E16.3012
G1 X103.397 Y115.379 E16.95012
G1 X103.396 Y104.82 E17.47692
G1 X103.396 Y104.62 E17.48689
G1 X103.596 Y104.62 E17.49335
G0 F3600 X103.596 Y104.72
G0 X104.201 Y105.48
G0 X104.271 Y105.55
G1 F1800 X104.271 Y114.459 E17.93783
G1 X115.721 Y114.459 E18.50907
G1 X115.721 Y105.55 E18.95354
G1 X104.271 Y105.55 E19.52478
G0 F3600 X104.671 Y105.95
;TYPE:WALL-OUTER
G1 F1800 X104.671 Y114.059 E19.92934
G1 X115.321 Y114.059 E20.46067
G1 X115.321 Y105.95 E20.86523
G1 X104.671 Y105.95 E21.39656
G0 F3600 X104.671 Y106.15
G0 X104.171 Y106.15
G0 X103.466 Y104.69
G0 X103.262 Y104.22
G1 F1800 X116.779 Y104.221 E22.07093
G1 X117.003 Y104.445 E22.08673
G1 X117.004 Y115.513 E22.63892
G1 X117.004 Y115.554 E22.64096
G1 X116.778 Y115.779 E22.65688
G1 X116.737 Y115.779 E22.65892
G1 X103.221 Y115.779 E23.33324
G1 X102.997 Y115.555 E23.34904
G1 X102.996 Y104.486 E23.90128
G1 X102.996 Y104.445 E23.90332
G1 X103.221 Y104.22 E23.9192
G1 X103.262 Y104.22 E23.92124
G0 F3600 X103.462 Y104.22
G0 X103.461 Y104.72
G0 X103.786 Y105.01
;TYPE:SKIN
G1 F1800 X116.213 Y105.011 E24.54123
G1 X116.214 Y114.989 E25.03903
G1 X103.787 Y114.989 E25.65902
G1 X103.786 Y105.01 E26.15687
G0 F3600 X103.881 Y105.16
G1 F1800 X103.881 Y114.849 E26.64026
G1 X116.111 Y114.849 E27.25041
G1 X116.111 Y105.16 E27.7338
G1 X103.881 Y105.16 E28.34396
G0 F3600 X104.271 Y105.55
;TIME_ELAPSED:28.223434
;LAYER:1
M140 S60
M106 S255
G0 F5400 X104.271 Y105.55 Z0.45
;TYPE:WALL-INNER
G1 F3300 X104.271 Y114.459 E28.56619
G1 X115.721 Y114.459 E28.85182
G1 X115.721 Y105.55 E29.07405
G1 X104.271 Y105.55 E29.35967
G0 F5400 X104.201 Y105.48
G0 X116.536 Y104.649
G0 X116.628 Y104.611
G1 F3300 X116.628 Y115.389 E29.62853
G1 X116.613 Y115.404 E29.62906
G1 X103.387 Y115.404 E29.95898
G1 X103.372 Y115.389 E29.95951
G1 X103.372 Y104.611 E30.22837
G1 X103.387 Y104.596 E30.2289
G1 X116.613 Y104.596 E30.55882
G1 X116.628 Y104.611 E30.55935
G0 F5400 X117.028 Y104.445
;TYPE:WALL-OUTER
G1 F2100 X117.028 Y115.555 E30.83649
G1 X116.779 Y115.804 E30.84528
G1 X103.221 Y115.804 E31.18348
G1 X102.972 Y115.555 E31.19227
G1 X102.972 Y104.445 E31.46941
G1 X103.221 Y104.196 E31.47819
G1 X116.779 Y104.196 E31.8164
G1 X117.028 Y104.445 E31.82518
G0 F5400 X117.028 Y104.645
G0 X116.528 Y104.645
G0 X104.671 Y105.45
G0 X104.671 Y105.95
G1 F2100 X104.671 Y114.059 E32.02746
G1 X115.321 Y114.059 E32.29313
G1 X115.321 Y105.95 E32.49541
G1 X104.671 Y105.95 E32.76107
G0 F5400 X104.671 Y106.15
G0 X104.171 Y106.15
G0 X103.881 Y105.16
;TYPE:SKIN
G1 F1800 X103.881 Y114.849 E33.00277
G1 X116.111 Y114.849 E33.30784
G1 X116.111 Y105.16 E33.54954
G1 X103.881 Y105.16 E33.85462
G0 F5400 X103.762 Y104.986
G1 F1800 X116.238 Y104.986 E34.16583
G1 X116.238 Y115.014 E34.41598
G1 X103.762 Y115.014 E34.7272
G1 X103.762 Y104.986 E34.97734
G0 F5400 X103.772 Y104.996
G0 X104.271 Y105.55
;TIME_ELAPSED:35.902211
;LAYER:2
G0 F7200 X104.271 Y105.55 Z0.6
;TYPE:WALL-INNER
G1 F4800 X104.271 Y114.459 E35.19958
G1 X115.721 Y114.459 E35.4852
G1 X115.721 Y105.55 E35.70744
G1 X104.271 Y105.55 E35.99306
G0 F7200 X104.201 Y105.48
G0 X116.536 Y104.649
G0 X116.628 Y104.611
G1 F4800 X116.628 Y115.389 E36.26192
G1 X116.613 Y115.404 E36.26245
G1 X103.387 Y115.404 E36.59237
G1 X103.372 Y115.389 E36.5929
G1 X103.372 Y104.611 E36.86176
G1 X103.387 Y104.596 E36.86229
G1 X116.613 Y104.596 E37.19221
G1 X116.628 Y104.611 E37.19274
G0 F7200 X117.028 Y104.445
;TYPE:WALL-OUTER
G1 F2400 X117.028 Y115.555 E37.46988
G1 X116.779 Y115.804 E37.47866
G1 X103.221 Y115.804 E37.81687
G1 X102.972 Y115.555 E37.82565
G1 X102.972 Y104.445 E38.10279
G1 X103.221 Y104.196 E38.11158
G1 X116.779 Y104.196 E38.44978
G1 X117.028 Y104.445 E38.45857
G0 F7200 X117.028 Y104.645
G0 X116.528 Y104.645
G0 X104.671 Y105.45
G0 X104.671 Y105.95
G1 F2400 X104.671 Y114.059 E38.66085
G1 X115.321 Y114.059 E38.92651
G1 X115.321 Y105.95 E39.12879
G1 X104.671 Y105.95 E39.39446
G0 F7200 X104.671 Y106.15
G0 X104.171 Y106.15
G0 X103.881 Y105.16
;TYPE:SKIN
G1 F1800 X103.881 Y114.849 E39.63615
G1 X116.111 Y114.849 E39.94123
G1 X116.111 Y105.16 E40.18292
G1 X103.881 Y105.16 E40.488
G0 F7200 X103.762 Y104.986
G1 F1800 X116.238 Y104.986 E40.79922
G1 X116.238 Y115.014 E41.04937
G1 X103.762 Y115.014 E41.36058
G1 X103.762 Y104.986 E41.61073
G0 F7200 X103.772 Y104.996
G0 X104.271 Y105.55
;TIME_ELAPSED:42.763704
;LAYER:3
G0 X104.271 Y105.55 Z0.75
;TYPE:WALL-INNER
G1 F4800 X104.271 Y114.459 E41.83297
G1 X115.721 Y114.459 E42.11859
G1 X115.721 Y105.55 E42.34082
G1 X104.271 Y105.55 E42.62645
G0 F7200 X104.201 Y105.48
G0 X115.846 Y105.55
G0 X115.946 Y105.55
G1 F4800 X115.946 Y114.459 E42.75145
G1 X115.946 Y114.685 E42.75619
G1 X115.721 Y114.685 E42.7591
G1 X104.271 Y114.685 E42.92047
G1 X104.046 Y114.685 E42.92519
G1 X104.046 Y114.459 E42.92812
G1 X104.046 Y105.55 E43.05312
G1 X104.046 Y105.325 E43.05784
G1 X104.271 Y105.325 E43.06074
G1 X115.721 Y105.325 E43.22141
G1 X115.946 Y105.325 E43.22612
G1 X115.946 Y105.55 E43.22902
G0 F7200 X115.846 Y105.55
G0 X115.876 Y114.615
G0 X116.346 Y115.085
;TYPE:WALL-OUTER
G1 F2400 X103.646 Y115.085 E43.54583
G1 X103.646 Y104.925 E43.79927
G1 X116.346 Y104.925 E44.11607
G1 X116.346 Y115.085 E44.36951
G0 F7200 X116.146 Y115.085
G0 X115.876 Y114.615
G0 X104.243 Y114.487
G0 X104.243 Y105.522
G0 X104.671 Y105.45
G0 X104.671 Y105.95
G1 F2400 X104.671 Y114.059 E44.57179
G1 X115.321 Y114.059 E44.83746
G1 X115.321 Y105.95 E45.03974
G1 X104.671 Y105.95 E45.3054
G0 F7200 X104.671 Y106.15
G0 X104.271 Y105.55
;TIME_ELAPSED:46.640744
;LAYER:4
G0 X104.271 Y105.55 Z0.9
;TYPE:WALL-INNER
G1 F4800 X104.271 Y114.459 E45.52764
G1 X115.721 Y114.459 E45.81326
G1 X115.721 Y105.55 E46.0355
G1 X104.271 Y105.55 E46.32112
G0 F7200 X104.201 Y105.48
G0 X115.846 Y105.55
G0 X115.946 Y105.55
G1 F4800 X115.946 Y114.459 E46.44613
G1 X115.946 Y114.685 E46.45086
G1 X115.721 Y114.685 E46.45377
G1 X104.271 Y114.685 E46.61515
G1 X104.046 Y114.685 E46.61986
G1 X104.046 Y114.459 E46.62279
G1 X104.046 Y105.55 E46.7478
G1 X104.046 Y105.325 E46.75251
G1 X104.271 Y105.325 E46.75542
G1 X115.721 Y105.325 E46.91608
G1 X115.946 Y105.325 E46.92079
G1 X115.946 Y105.55 E46.9237
G0 F7200 X115.846 Y105.55
G0 X115.876 Y114.615
G0 X116.346 Y115.085
;TYPE:WALL-OUTER
G1 F2400 X103.646 Y115.085 E47.2405
G1 X103.646 Y104.925 E47.49394
G1 X116.346 Y104.925 E47.81075
G1 X116.346 Y115.085 E48.06419
G0 F7200 X116.146 Y115.085
G0 X115.876 Y114.615
G0 X104.243 Y114.487
G0 X104.243 Y105.522
G0 X104.671 Y105.45
G0 X104.671 Y105.95
G1 F2400 X104.671 Y114.059 E48.26647
G1 X115.321 Y114.059 E48.53213
G1 X115.321 Y105.95 E48.73441
G1 X104.671 Y105.95 E49.00008
G0 F7200 X104.671 Y106.15
G0 X104.271 Y105.55
;TIME_ELAPSED:50.517784
;LAYER:5
G0 X104.271 Y105.55 Z1.05
;TYPE:WALL-INNER
G1 F4800 X104.271 Y114.459 E49.22231
G1 X115.721 Y114.459 E49.50794
G1 X115.721 Y105.55 E49.73017
G1 X104.271 Y105.55 E50.01579
G0 F7200 X104.201 Y105.48
G0 X115.846 Y105.55
G0 X115.946 Y105.55
G1 F4800 X115.946 Y114.459 E50.1408
G1 X115.946 Y114.685 E50.14553
G1 X115.721 Y114.685 E50.14844
G1 X104.271 Y114.685 E50.30982
G1 X104.046 Y114.685 E50.31453
G1 X104.046 Y114.459 E50.31746
G1 X104.046 Y105.55 E50.44247
G1 X104.046 Y105.325 E50.44718
G1 X104.271 Y105.325 E50.45009
G1 X115.721 Y105.325 E50.61075
G1 X115.946 Y105.325 E50.61546
G1 X115.946 Y105.55 E50.61837
G0 F7200 X115.846 Y105.55
G0 X115.876 Y114.615
G0 X116.346 Y115.085
;TYPE:WALL-OUTER
G1 F2400 X103.646 Y115.085 E50.93517
G1 X103.646 Y104.925 E51.18862
G1 X116.346 Y104.925 E51.50542
G1 X116.346 Y115.085 E51.75886
G0 F7200 X116.146 Y115.085
G0 X115.876 Y114.615
G0 X104.243 Y114.487
G0 X104.243 Y105.522
G0 X104.671 Y105.45
G0 X104.671 Y105.95
G1 F2400 X104.671 Y114.059 E51.96114
G1 X115.321 Y114.059 E52.22681
G1 X115.321 Y105.95 E52.42909
G1 X104.671 Y105.95 E52.69475
G0 F7200 X104.671 Y106.15
G0 X104.271 Y105.55
;TIME_ELAPSED:54.394824
;LAYER:6
G0 X104.271 Y105.55 Z1.2
;TYPE:WALL-INNER
G1 F4800 X104.271 Y114.459 E52.91699
G1 X115.721 Y114.459 E53.20261
G1 X115.721 Y105.55 E53.42484
G1 X104.271 Y105.55 E53.71047
G0 F7200 X104.201 Y105.48
G0 X115.846 Y105.55
G0 X115.946 Y105.55
G1 F4800 X115.946 Y114.459 E53.83547
G1 X115.946 Y114.685 E53.84021
G1 X115.721 Y114.685 E53.84312
G1 X104.271 Y114.685 E54.00449
G1 X104.046 Y114.685 E54.00921
G1 X104.046 Y114.459 E54.01214
G1 X104.046 Y105.55 E54.13714
G1 X104.046 Y105.325 E54.14186
G1 X104.271 Y105.325 E54.14476
G1 X115.721 Y105.325 E54.30543
G1 X115.946 Y105.325 E54.31014
G1 X115.946 Y105.55 E54.31304
G0 F7200 X115.846 Y105.55
